X: 20122
M: C
L: 1/8
K: Em
(EF) |\
{A}G2(FE) (^DE)(FA) | G2E2 E2 |]
e2e2 (efge) | d2B2 B3^c |\
(d^c)(de) faef | d2A2 A2(Bd) |\
(ed)(ef) {a}g3f/e/ | (dB)(GB) {d}c3(B/A/) |\
{A}G2(FE) (^DE)(FA) | G2E2E2 |]



